X: 1
T: Kulkurin Masurkka
T: Vagabond's Mazurka
Z: John Chambers <jc@trillian.mit.edu>
M: 3/4
L: 1/8
K: Am
|: "Am"A,2 A,>B, C>D | E2 A2 c2 |1,3 "E7"E2 ^G2  B2  | "Am"c>B A^G A2 \
                               :|2,4 "E7"E2 E>^G B>G | "Am"A2  A2  z2 :|
|: "F"F2 FC FA | "C"E2 EC EG | "G7"G,2 G,B, DB, |1,3 "C"C2 CE G2 \
                                               :|2,4 "C"C2 C2  z2 :|
|: "C"E2  G3  c | e6        | "Dm"e2 d3  A | d6 \
| "G7"G2  B3  d | f4  a2    |  "C"a2 g3 ^f | g6 |
|  "C"E2  G3  c | e4  g2    | "Dm"g2 f3  e | d6 \
| "G7"G>A Bc de | f>g a2 b2 |  "C"c'3 c' c'2 | c'6 :|

%%sep 1 1 500

